X:83
M:6/8
L:1/4
K:Bb
D/ E/ =E/ F/B/ c/ | d c/ B3/2 | F/ A/ G/ E G/ | (F3/2 D3/2) | D/ E/ =E/ F/B/ c/ | d c/ B3/2 | F/ A/ G/ F c/ | B3 | B3/2 A G/ | G F/ F3/2 | F/ A/ G/ E3/2 | E/ G/ F/ D3/2 | F3/2 B B/ | c/B/ c/ !fermata!d3/2 | !sintro!c/ B/ G/ F/B/ A/ | B3 !eintro!|]
